public/images/LOGO.svg

<svg fill="none" height="44" viewBox="0 0 166 44" width="166" xmlns="http://www.w3.org/2000/svg"><path d="m1.44004 43.2002c-.900001 0-1.44000087-.42-1.44000087-1.14v-.24c0-1.68 2.40000087-2.4 2.40000087-5.16v-29.52001c0-2.76-2.40000087-3.48-2.40000087-5.16v-.24c0-.72.53999987-1.139997 1.44000087-1.139997h13.19996c.84 0 1.44.419997 1.44 1.139997v.24c0 1.68-2.7 2.4-2.7 5.16v27.96001c0 1.98.84 3.9 2.94 3.9h6.18c5.1 0 6-8.52 8.88-8.52h.84c.9 0 1.38.6 1.2 1.5l-1.56 9.3c-.24 1.32-.78 1.92-2.1 1.92zm54.23346.6c-11.4 0-21.24-8.82-21.24-21.66 0-13.14001 8.52-22.1400064 21.18-22.1400064 11.52 0 21.18 9.3000064 21.18 22.2000064 0 13.02-9.42 21.6-21.12 21.6zm-10.68-30.54c0 11.4 6.6 26.04 13.8 26.04 4.38 0 6.84-3.3 6.84-8.58 0-10.26-6.72-26.22001-13.92-26.22001-4.26 0-6.72 3.18-6.72 8.76001zm56.7455 30.54c-12.8996 0-21.7196-10.56-21.7196-21.84 0-13.68001 10.02-21.9000072 20.2196-21.9000072 10.2 0 17.64 4.9799972 17.64 11.1000072 0 2.94-1.92 4.86-4.8 4.86-7.68 0-8.7-11.7-15.5396-11.7-4.2 0-7.02 4.44-7.02 10.5 0 11.88 6.18 21.6 13.6796 21.6 1.44 0 2.58-.24 3.36-.6v-7.86c0-2.82-3.36-3.48-3.36-5.16v-.24c0-.72.72-1.2 1.62-1.2l13.38.06c.84 0 1.44.48 1.44 1.2v.24c0 1.68-2.94 2.34-2.94 5.16v6.96c0 1.74-.48 2.88-2.52 4.5-2.64 2.1-7.32 4.32-13.44 4.32zm42.645 0c-11.4 0-21.24-8.82-21.24-21.66 0-13.14001 8.52-22.1400064 21.18-22.1400064 11.52 0 21.18 9.3000064 21.18 22.2000064 0 13.02-9.42 21.6-21.12 21.6zm-10.68-30.54c0 11.4 6.6 26.04 13.8 26.04 4.38 0 6.84-3.3 6.84-8.58 0-10.26-6.72-26.22001-13.92-26.22001-4.26 0-6.72 3.18-6.72 8.76001z" fill="#fff"/></svg>

<svg width="166" height="44" viewBox="0 0 166 44" fill="none" xmlns="http://www.w3.org/2000/svg">
<path d="M1.44004 43.2002C0.540039 43.2002 3.91304e-05 42.7802 3.91304e-05 42.0602V41.8202C3.91304e-05 40.1402 2.40004 39.4202 2.40004 36.6602V7.14019C2.40004 4.38019 3.91304e-05 3.66019 3.91304e-05 1.98019V1.74019C3.91304e-05 1.02019 0.540039 0.600193 1.44004 0.600193H14.64C15.48 0.600193 16.08 1.02019 16.08 1.74019V1.98019C16.08 3.66019 13.38 4.38019 13.38 7.14019V35.1002C13.38 37.0802 14.22 39.0002 16.32 39.0002H22.5C27.6 39.0002 28.5 30.4802 31.38 30.4802H32.22C33.12 30.4802 33.6 31.0802 33.42 31.9802L31.86 41.2802C31.62 42.6002 31.08 43.2002 29.76 43.2002H1.44004ZM55.6735 43.8002C44.2735 43.8002 34.4335 34.9802 34.4335 22.1402C34.4335 9.00019 42.9535 0.000193596 55.6135 0.000193596C67.1335 0.000193596 76.7935 9.3002 76.7935 22.2002C76.7935 35.2202 67.3735 43.8002 55.6735 43.8002ZM44.9935 13.2602C44.9935 24.6602 51.5935 39.3002 58.7935 39.3002C63.1735 39.3002 65.6335 36.0002 65.6335 30.7202C65.6335 20.4602 58.9135 4.50019 51.7135 4.50019C47.4535 4.50019 44.9935 7.68019 44.9935 13.2602ZM101.739 43.8002C88.8394 43.8002 80.0194 33.2402 80.0194 21.9602C80.0194 8.28019 90.0394 0.0601928 100.239 0.0601928C110.439 0.0601928 117.879 5.04019 117.879 11.1602C117.879 14.1002 115.959 16.0202 113.079 16.0202C105.399 16.0202 104.379 4.3202 97.5394 4.3202C93.3394 4.3202 90.5194 8.7602 90.5194 14.8202C90.5194 26.7002 96.6994 36.4202 104.199 36.4202C105.639 36.4202 106.779 36.1802 107.559 35.8202V27.9602C107.559 25.1402 104.199 24.4802 104.199 22.8002V22.5602C104.199 21.8402 104.919 21.3602 105.819 21.3602L119.199 21.4202C120.039 21.4202 120.639 21.9002 120.639 22.6202V22.8602C120.639 24.5402 117.699 25.2002 117.699 28.0202V34.9802C117.699 36.7202 117.219 37.8602 115.179 39.4802C112.539 41.5802 107.859 43.8002 101.739 43.8002ZM144.384 43.8002C132.984 43.8002 123.144 34.9802 123.144 22.1402C123.144 9.00019 131.664 0.000193596 144.324 0.000193596C155.844 0.000193596 165.504 9.3002 165.504 22.2002C165.504 35.2202 156.084 43.8002 144.384 43.8002ZM133.704 13.2602C133.704 24.6602 140.304 39.3002 147.504 39.3002C151.884 39.3002 154.344 36.0002 154.344 30.7202C154.344 20.4602 147.624 4.50019 140.424 4.50019C136.164 4.50019 133.704 7.68019 133.704 13.2602Z" fill="white"/>
</svg>
